public/assets/footer/youtube-dark.svg

<svg fill="none" height="36" viewBox="0 0 37 36" width="37" xmlns="http://www.w3.org/2000/svg"><path d="m30.8527 12.4622c-.1409-.5248-.4172-1.0033-.8011-1.3877-.384-.3845-.8622-.6613-1.3868-.8029-1.9311-.51928-9.6718-.51928-9.6718-.51928s-7.7407 0-9.67175.51658c-.52483.1411-1.00329.4178-1.38734.8023s-.66016.8632-.80061 1.3882c-.5166 1.9336-.5166 5.9666-.5166 5.9666s0 4.0331.5166 5.9639c.28454 1.0663 1.12437 1.906 2.18795 2.1906 1.93105.5193 9.67175.5193 9.67175.5193s7.7407 0 9.6718-.5193c1.0663-.2846 1.9034-1.1243 2.1879-2.1906.5166-1.9308.5166-5.9639.5166-5.9639s0-4.033-.5166-5.9638zm-14.3184 9.6654v-7.4031l6.4092 3.6739z" stroke="#fff" stroke-width="1.286"/></svg>

<svg xmlns="http://www.w3.org/2000/svg" width="37" height="36" fill="none" viewBox="0 0 37 36"><path stroke="#fff" stroke-width="1.286" d="M30.8527 12.4622C30.7118 11.9374 30.4355 11.4589 30.0516 11.0745C29.6676 10.69 29.1894 10.4132 28.6648 10.2716C26.7337 9.75232 18.993 9.75232 18.993 9.75232C18.993 9.75232 11.2523 9.75232 9.32125 10.2689C8.79642 10.41 8.31796 10.6867 7.93391 11.0712C7.54986 11.4557 7.27375 11.9344 7.1333 12.4594C6.6167 14.393 6.6167 18.426 6.6167 18.426C6.6167 18.426 6.6167 22.4591 7.1333 24.3899C7.41784 25.4562 8.25767 26.2959 9.32125 26.5805C11.2523 27.0998 18.993 27.0998 18.993 27.0998C18.993 27.0998 26.7337 27.0998 28.6648 26.5805C29.7311 26.2959 30.5682 25.4562 30.8527 24.3899C31.3693 22.4591 31.3693 18.426 31.3693 18.426C31.3693 18.426 31.3693 14.393 30.8527 12.4622ZM16.5343 22.1276V14.7245L22.9435 18.3984L16.5343 22.1276Z"/></svg>
